X:3840
T:Danza de La Hierbabuena
R:Danza
C:Tradicional
S:Música Tradicional Asturiana, (C) Tello & Tito. Asturies, 2001.
S:http://pagina.de/MusTradAst <telloytito@asturies.org>
O:Teberga
A:Asturies
Z:DyC en Teberga
M:3/4
L:1/8
Q:1/4=72
K:C
| c z c z cB/A/|BA G z Ac|BA G z Ac|B AG2 z2|
c z c z cB/A/|BA G z Ac|BA G z Ac|GF/E/ F z E2|
M:2/4
|D C3|F z AF|
M:3/4
|GF/E/ Fz E2|
M:2/4
|D C3 |


